Resources/app/storefront/src/assets/icon-pack/cinema/ic-pinterest.svg

<?xml version="1.0" encoding="UTF-8"?>
<svg width="18px" height="19px" viewBox="0 0 18 19" version="1.1" xmlns="http://www.w3.org/2000/svg" xmlns:xlink="http://www.w3.org/1999/xlink">
    <title>C3FF4D05-FE31-4794-93BA-D8B4BB572315@1x</title>
    <defs>
        <path d="M9.00739312,0 C4.0329398,0 0,4.02631579 0,8.99259868 C0,12.8042763 2.37231753,16.0608553 5.72321604,17.3708882 C5.64166762,16.6603618 5.57494619,15.5649671 5.75287001,14.7878289 C5.91596684,14.0847039 6.80558591,10.3174342 6.80558591,10.3174342 C6.80558591,10.3174342 6.53870019,9.77713816 6.53870019,8.98519737 C6.53870019,7.734375 7.26522243,6.80180921 8.16966849,6.80180921 C8.94067169,6.80180921 9.3113463,7.37911184 9.3113463,8.06743421 C9.3113463,8.83717105 8.82205581,9.99177632 8.56258358,11.0649671 C8.3475923,11.9605263 9.01480661,12.6932566 9.89701219,12.6932566 C11.4983265,12.6932566 12.7289662,11.0057566 12.7289662,8.578125 C12.7289662,6.42434211 11.1795464,4.921875 8.96291216,4.921875 C6.39784383,4.921875 4.8929049,6.83881579 4.8929049,8.82236842 C4.8929049,9.59210526 5.18944459,10.4210526 5.56011921,10.8725329 C5.63425413,10.9613487 5.64166762,11.0427632 5.61942715,11.1315789 C5.55270572,11.4128289 5.39702238,12.0271382 5.36736841,12.1529605 C5.33030095,12.3157895 5.23392555,12.3527961 5.06341522,12.2713816 C3.9365644,11.7458882 3.23228263,10.1101974 3.23228263,8.78536184 C3.23228263,5.95065789 5.29323349,3.34539474 9.18531693,3.34539474 C12.3063972,3.34539474 14.7380226,5.56578947 14.7380226,8.54111842 C14.7380226,11.6422697 12.7808607,14.1365132 10.0675225,14.1365132 C9.15566296,14.1365132 8.29569786,13.6628289 8.00657166,13.1003289 C8.00657166,13.1003289 7.55434863,14.8174342 7.44314625,15.2393092 C7.24298195,16.0238487 6.69438353,17.0008224 6.32370891,17.6003289 C7.16884703,17.859375 8.0584661,18 8.99256613,18 C13.9670194,18 18,13.9736842 18,9.00740132 C18.0147862,4.02631579 13.9818464,0 9.00739312,0 Z" id="path-1"></path>
    </defs>
    <g id="Lizenzen-&amp;-Assets-✅" stroke="none" stroke-width="1" fill="none" fill-rule="evenodd">
        <g id="Icons" transform="translate(-327.000000, -932.000000)">
            <g id="Fills/Grey-900" transform="translate(327.000000, 932.500000)">
                <mask id="mask-2" fill="white">
                    <use xlink:href="#path-1"></use>
                </mask>
                <use id="Mask" fill="#071C31" xlink:href="#path-1"></use>
                <g id="Group" mask="url(#mask-2)" fill="#071C31">
                    <g id="Fills/Grey-900">
                        <rect id="Rectangle" x="0" y="0" width="18" height="18"></rect>
                    </g>
                </g>
            </g>
        </g>
    </g>
</svg>

<?xml version="1.0" encoding="UTF-8"?><svg width="18" height="19" xmlns="http://www.w3.org/2000/svg" xmlns:xlink="http://www.w3.org/1999/xlink"><defs><path d="M9 0a9 9 0 0 0-3.28 17.37c-.08-.71-.15-1.8.03-2.58l1.06-4.47s-.27-.54-.27-1.33c0-1.26.73-2.19 1.63-2.19.77 0 1.14.58 1.14 1.27 0 .77-.49 1.92-.75 3-.21.9.45 1.62 1.34 1.62 1.6 0 2.83-1.68 2.83-4.11 0-2.16-1.55-3.66-3.77-3.66a3.9 3.9 0 0 0-4.07 3.9c0 .77.3 1.6.67 2.05.07.1.08.17.06.26l-.25 1.02c-.04.17-.14.2-.3.12-1.13-.52-1.84-2.16-1.84-3.48 0-2.84 2.06-5.44 5.96-5.44 3.12 0 5.55 2.22 5.55 5.2 0 3.1-1.96 5.59-4.67 5.59-.91 0-1.77-.48-2.06-1.04l-.57 2.14c-.2.78-.75 1.76-1.12 2.36A9 9 0 1 0 9 0Z" id="a"/></defs><g transform="translate(0 .5)" fill="none" fill-rule="evenodd"><mask id="b" fill="#fff"><use xlink:href="#a"/></mask><use fill="#071C31" xlink:href="#a"/><g mask="url(#b)" fill="#071C31"><path d="M0 0h18v18H0z"/></g></g></svg>
